X:1
T:Title
%%score ( 1 2 ) { 3 | ( 4 5 ) }
L:1/8
M:3/4
K:Ab
V:1 treble nm="Grand Piano, Right Hand"
V:2 treble 
V:3 treble nm="Choir Pad, Bowen, LM"
V:4 bass 
V:5 bass 
V:1
 [EA]2 [EG]2 [EA]2 | [FB]4 [EA]2 | GB d2 [Ec]2 | c2 B4 | [Ec]2 [EB]2 [Ec]2 | [=DA]4 [EG]2 | %6
w: By~Franz~Josef~Haydn * *||||||
 GF [B,E]2 [B,=D]2 | [B,E]6- | [B,E]2 E2 [=DF]2 | [DG]2 [CA]2 [EB]2 | [Ec]2 e2 d2 | [Ec]2 c2 B2- | %12
w: ||||||
 B2 [EA]2 [EB]2 | [Ec]2 d3 e | [Af]2 A2 E2 | .c2 z2 z2 | z6 |] %17
w: |||||
V:2
 x6 | x6 | E4 z2 | E6 | x6 | x6 | C2 z2 z2 | x6 | x6 | x6 | z2 E4 | z2 E4- | E2 z2 z2 | z2 A4 | %14
 x6 | D-[DB] [CA]4- | [CA]4 z2 |] %17
V:3
 C2 D2 E2 | D4 E2 | D2[K:bass] B,2 A,2 | A,2 G,4 | A,2 B,2 A,2 | A,2 B,2 B,2 | A,2 G,2 F,2 | G,6- | %8
 G,2 G,2 A,2 | B,2 A,2 G,2 | A,2 C2 B,2 | A,2 A,2 G,2- | G,2 C2 B,2 | A,2 A,4 | D2 C4 | G,2 A,4- | %16
 A,4 z2 |] %17
V:4
 A,,2 B,,2 C,2 | D,4 C,2 | B,,2 G,,2 A,,2 | E,6- | E,2 G,2 z2 | F,4 D,2 | A,,2 B,,2 B,,2 | E,6- | %8
 E,2 E,2 E,2 | E,2 E,4 | E,2 E,4 | E,2 z2 z2 | z2 A,2 G,2 | G,2 F,4 | D,2 E,4 | E,2 A,,4- | %16
 A,,4 z2 |] %17
V:5
 x6 | x6 | x6 | x6 | x6 | x6 | x6 | x6 | x6 | x6 | x6 | z2 E,4- | E,4 z2 | x6 | x6 | x6 | x6 |] %17

